azure-patterns/svg-quick.svg

<svg xmlns="http://www.w3.org/2000/svg" viewBox="0 0 68 32">
                                
                            
    <path d="m49.9184 18v-12h2.0091v10h6.0272v2zm-10.1238-9.01563c-1.287 2.16663-1.9306 4.50263-1.9306 7.00783s.6279 4.8307 1.8835 6.9765c1.2557 2.1459 2.9665 3.8542 5.1326 5.1251 2.1764 1.2708 4.5256 1.9062 7.0474 1.9062s4.8709-.6406 7.0474-1.9219c2.1765-1.2812 3.8873-2.9739 5.1325-5.0781 1.2557-2.1146 1.8835-4.4427 1.8835-6.9844 0-2.5416-.633-4.8802-1.8992-7.0156-1.2661-2.13542-2.956-3.83333-5.0697-5.09375-2.187-1.27083-4.5544-1.90625-7.1024-1.90625-2.5479 0-4.8892.625-7.0238 1.875-2.1242 1.25-3.8246 2.95312-5.1012 5.10937zm-1.7893 15.04683s-.3584-.6145-1.0752-1.8437c-.7167-1.2292-1.0751-3.2917-1.0751-6.1875s.7168-5.5677 2.1503-8.01562c1.4336-2.44792 3.3903-4.39063 5.8702-5.82813 2.48-1.4375 5.164-2.15625 8.052-2.15625s5.572.71875 8.0519 2.15625c2.4695 1.4375 4.421 3.38021 5.8546 5.82813 1.444 2.45832 2.166 5.12762 2.166 8.00782s-.722 5.5547-2.166 8.0234c-1.4441 2.4688-3.3956 4.4167-5.8546 5.8438s-5.143 2.1406-8.0519 2.1406c-2.909 0-5.5982-.7135-8.0677-2.1406-2.4694-1.4271-4.4209-3.3698-5.8545-5.8282z"></path>
    <path d="m11.8955 8h21.1045v1.7501h-21.1045z"></path>
    <path d="m0 20.25h28.1393v1.7501h-28.1393z"></path>
</svg>

<svg xmlns="http://www.w3.org/2000/svg" viewBox="0 0 68 32"><path d="M49.918 18V6h2.01v10h6.027v2zM39.795 8.984c-1.287 2.167-1.931 4.503-1.931 7.008s.628 4.83 1.884 6.977a14.128 14.128 0 0 0 5.132 5.125C47.056 29.364 49.406 30 51.927 30s4.871-.64 7.048-1.922c2.176-1.281 3.887-2.974 5.132-5.078 1.256-2.115 1.884-4.443 1.884-6.984 0-2.542-.633-4.88-1.9-7.016a14.363 14.363 0 0 0-5.069-5.094A13.894 13.894 0 0 0 51.92 2c-2.548 0-4.89.625-7.024 1.875-2.124 1.25-3.825 2.953-5.101 5.11zm-1.79 15.047l-1.075-1.844c-.717-1.229-1.075-3.291-1.075-6.187s.717-5.568 2.15-8.016c1.434-2.448 3.39-4.39 5.87-5.828C46.355.72 49.04 0 51.928 0s5.572.719 8.051 2.156a15.993 15.993 0 0 1 5.855 5.828C67.278 10.443 68 13.112 68 15.992s-.722 5.555-2.166 8.024c-1.444 2.468-3.396 4.416-5.855 5.843S54.836 32 51.928 32c-2.91 0-5.599-.714-8.068-2.14a15.837 15.837 0 0 1-5.855-5.829zM11.896 8H33v1.75H11.895zM0 20.25h28.14V22H0z"/></svg>
